images/3235210.svg

<?xml version="1.0" encoding="UTF-8"?>
<svg xmlns="http://www.w3.org/2000/svg" xmlns:xlink="http://www.w3.org/1999/xlink" width="300pt" height="300pt" viewBox="0 0 300 300" version="1.1">
<defs>
<g>
<symbol overflow="visible" id="glyph0-0">
<path style="stroke:none;" d="M 0.640625 2.296875 L 0.640625 -9.171875 L 7.140625 -9.171875 L 7.140625 2.296875 Z M 1.375 1.578125 L 6.421875 1.578125 L 6.421875 -8.4375 L 1.375 -8.4375 Z M 1.375 1.578125 "/>
</symbol>
<symbol overflow="visible" id="glyph0-1">
<path style="stroke:none;" d="M 1.28125 -9.484375 L 3 -9.484375 L 7.203125 -1.546875 L 7.203125 -9.484375 L 8.453125 -9.484375 L 8.453125 0 L 6.71875 0 L 2.515625 -7.921875 L 2.515625 0 L 1.28125 0 Z M 1.28125 -9.484375 "/>
</symbol>
<symbol overflow="visible" id="glyph0-2">
<path style="stroke:none;" d="M 6.953125 -9.171875 L 6.953125 -7.921875 C 6.472656 -8.148438 6.015625 -8.320312 5.578125 -8.4375 C 5.148438 -8.550781 4.734375 -8.609375 4.328125 -8.609375 C 3.628906 -8.609375 3.085938 -8.472656 2.703125 -8.203125 C 2.328125 -7.929688 2.140625 -7.546875 2.140625 -7.046875 C 2.140625 -6.628906 2.265625 -6.3125 2.515625 -6.09375 C 2.773438 -5.882812 3.253906 -5.710938 3.953125 -5.578125 L 4.734375 -5.421875 C 5.679688 -5.234375 6.382812 -4.910156 6.84375 -4.453125 C 7.300781 -3.992188 7.53125 -3.378906 7.53125 -2.609375 C 7.53125 -1.691406 7.222656 -0.992188 6.609375 -0.515625 C 5.992188 -0.046875 5.085938 0.1875 3.890625 0.1875 C 3.441406 0.1875 2.960938 0.132812 2.453125 0.03125 C 1.953125 -0.0703125 1.429688 -0.222656 0.890625 -0.421875 L 0.890625 -1.734375 C 1.410156 -1.441406 1.921875 -1.222656 2.421875 -1.078125 C 2.921875 -0.929688 3.410156 -0.859375 3.890625 -0.859375 C 4.628906 -0.859375 5.195312 -1 5.59375 -1.28125 C 5.988281 -1.570312 6.1875 -1.984375 6.1875 -2.515625 C 6.1875 -2.984375 6.039062 -3.347656 5.75 -3.609375 C 5.46875 -3.867188 5.003906 -4.066406 4.359375 -4.203125 L 3.578125 -4.359375 C 2.617188 -4.546875 1.925781 -4.84375 1.5 -5.25 C 1.070312 -5.65625 0.859375 -6.21875 0.859375 -6.9375 C 0.859375 -7.78125 1.148438 -8.441406 1.734375 -8.921875 C 2.328125 -9.410156 3.144531 -9.65625 4.1875 -9.65625 C 4.625 -9.65625 5.070312 -9.613281 5.53125 -9.53125 C 6 -9.445312 6.472656 -9.328125 6.953125 -9.171875 Z M 6.953125 -9.171875 "/>
</symbol>
<symbol overflow="visible" id="glyph0-3">
<path style="stroke:none;" d="M 5.125 -8.609375 C 4.1875 -8.609375 3.441406 -8.257812 2.890625 -7.5625 C 2.347656 -6.875 2.078125 -5.929688 2.078125 -4.734375 C 2.078125 -3.535156 2.347656 -2.585938 2.890625 -1.890625 C 3.441406 -1.203125 4.1875 -0.859375 5.125 -0.859375 C 6.050781 -0.859375 6.785156 -1.203125 7.328125 -1.890625 C 7.878906 -2.585938 8.15625 -3.535156 8.15625 -4.734375 C 8.15625 -5.929688 7.878906 -6.875 7.328125 -7.5625 C 6.785156 -8.257812 6.050781 -8.609375 5.125 -8.609375 Z M 5.125 -9.65625 C 6.445312 -9.65625 7.503906 -9.207031 8.296875 -8.3125 C 9.097656 -7.414062 9.5 -6.222656 9.5 -4.734375 C 9.5 -3.234375 9.097656 -2.035156 8.296875 -1.140625 C 7.503906 -0.253906 6.445312 0.1875 5.125 0.1875 C 3.789062 0.1875 2.722656 -0.253906 1.921875 -1.140625 C 1.128906 -2.035156 0.734375 -3.234375 0.734375 -4.734375 C 0.734375 -6.222656 1.128906 -7.414062 1.921875 -8.3125 C 2.722656 -9.207031 3.789062 -9.65625 5.125 -9.65625 Z M 5.125 -9.65625 "/>
</symbol>
</g>
</defs>
<g id="surface36249">
<rect x="0" y="0" width="300" height="300" style="fill:rgb(100%,100%,100%);fill-opacity:1;stroke:none;"/>
<path style="fill:none;stroke-width:1.2;stroke-linecap:butt;stroke-linejoin:miter;stroke:rgb(0%,0%,0%);stroke-opacity:1;stroke-miterlimit:10;" d="M 153.480469 241.339844 L 121.773438 233.949219 "/>
<path style="fill:none;stroke-width:1.2;stroke-linecap:butt;stroke-linejoin:miter;stroke:rgb(0%,0%,0%);stroke-opacity:1;stroke-miterlimit:10;" d="M 175.734375 217.570312 L 153.480469 241.339844 "/>
<path style="fill:none;stroke-width:1;stroke-linecap:butt;stroke-linejoin:miter;stroke:rgb(0%,0%,0%);stroke-opacity:1;stroke-miterlimit:10;" d="M 112.316406 202.796875 L 112.316406 202.796875 M 112.675781 205.773438 L 113.671875 205.46875 M 113.03125 208.75 L 115.027344 208.144531 M 113.390625 211.730469 L 116.386719 210.820312 M 113.75 214.707031 L 117.742188 213.496094 M 114.109375 217.6875 L 119.101562 216.171875 M 114.46875 220.664062 L 120.457031 218.847656 M 114.828125 223.644531 L 121.8125 221.523438 M 115.1875 226.621094 L 123.171875 224.199219 M 115.546875 229.601562 L 124.527344 226.875 M 115.90625 232.578125 L 125.882812 229.550781 M 116.265625 235.558594 L 127.242188 232.226562 M 116.273438 235.621094 L 127.269531 232.28125 "/>
<path style="fill:none;stroke-width:1.2;stroke-linecap:butt;stroke-linejoin:miter;stroke:rgb(0%,0%,0%);stroke-opacity:1;stroke-miterlimit:10;" d="M 112.316406 202.796875 L 87.699219 224.105469 "/>
<path style="fill:none;stroke-width:1.2;stroke-linecap:butt;stroke-linejoin:miter;stroke:rgb(0%,0%,0%);stroke-opacity:1;stroke-miterlimit:10;" d="M 112.316406 202.796875 L 134.566406 179.027344 "/>
<path style="fill:none;stroke-width:1.2;stroke-linecap:butt;stroke-linejoin:miter;stroke:rgb(0%,0%,0%);stroke-opacity:1;stroke-miterlimit:10;" d="M 99.652344 172.796875 L 112.316406 202.796875 "/>
<path style="fill:none;stroke-width:1.2;stroke-linecap:butt;stroke-linejoin:miter;stroke:rgb(0%,0%,0%);stroke-opacity:1;stroke-miterlimit:10;" d="M 87.699219 224.105469 L 59.824219 207.28125 "/>
<path style="fill:none;stroke-width:1.2;stroke-linecap:butt;stroke-linejoin:miter;stroke:rgb(0%,0%,0%);stroke-opacity:1;stroke-miterlimit:10;" d="M 59.824219 207.28125 L 63.515625 191.425781 "/>
<path style="fill:none;stroke-width:1.2;stroke-linecap:butt;stroke-linejoin:miter;stroke:rgb(0%,0%,100%);stroke-opacity:1;stroke-miterlimit:10;" d="M 63.515625 191.425781 L 67.210938 175.570312 "/>
<path style="fill:none;stroke-width:1.2;stroke-linecap:butt;stroke-linejoin:miter;stroke:rgb(0%,0%,100%);stroke-opacity:1;stroke-miterlimit:10;" d="M 67.210938 175.570312 L 83.433594 174.183594 "/>
<path style="fill:none;stroke-width:1.2;stroke-linecap:butt;stroke-linejoin:miter;stroke:rgb(0%,0%,0%);stroke-opacity:1;stroke-miterlimit:10;" d="M 83.433594 174.183594 L 99.652344 172.796875 "/>
<path style="fill:none;stroke-width:1.2;stroke-linecap:butt;stroke-linejoin:miter;stroke:rgb(0%,0%,100%);stroke-opacity:1;stroke-miterlimit:10;" d="M 67.210938 175.570312 L 56.554688 163.261719 "/>
<path style="fill:none;stroke-width:1.2;stroke-linecap:butt;stroke-linejoin:miter;stroke:rgb(0%,0%,0%);stroke-opacity:1;stroke-miterlimit:10;" d="M 56.554688 163.261719 L 45.898438 150.953125 "/>
<path style=" stroke:none;fill-rule:nonzero;fill:rgb(100%,100%,100%);fill-opacity:1;" d="M 62.210938 167.570312 L 72.210938 167.570312 L 72.210938 183.570312 L 62.210938 183.570312 Z M 62.210938 167.570312 "/>
<g style="fill:rgb(0%,0%,100%);fill-opacity:1;">
  <use xlink:href="#glyph0-1" x="62.210938" y="179.946289"/>
</g>
<path style="fill:none;stroke-width:1.2;stroke-linecap:butt;stroke-linejoin:miter;stroke:rgb(0%,0%,0%);stroke-opacity:1;stroke-miterlimit:10;" d="M 45.898438 150.953125 L 56.5625 120.191406 "/>
<path style="fill:none;stroke-width:1.2;stroke-linecap:butt;stroke-linejoin:miter;stroke:rgb(0%,0%,0%);stroke-opacity:1;stroke-miterlimit:10;" d="M 56.5625 120.191406 L 88.535156 114.042969 "/>
<path style="fill:none;stroke-width:1.2;stroke-linecap:butt;stroke-linejoin:miter;stroke:rgb(0%,0%,0%);stroke-opacity:1;stroke-miterlimit:10;" d="M 58.3125 112.050781 L 83.890625 107.132812 "/>
<path style="fill:none;stroke-width:1.2;stroke-linecap:butt;stroke-linejoin:miter;stroke:rgb(0%,0%,0%);stroke-opacity:1;stroke-miterlimit:10;" d="M 35.25 95.574219 L 56.5625 120.191406 "/>
<path style="fill:none;stroke-width:1.2;stroke-linecap:butt;stroke-linejoin:miter;stroke:rgb(0%,0%,0%);stroke-opacity:1;stroke-miterlimit:10;" d="M 88.535156 114.042969 L 99.199219 83.277344 "/>
<path style="fill:none;stroke-width:1.2;stroke-linecap:butt;stroke-linejoin:miter;stroke:rgb(0%,0%,0%);stroke-opacity:1;stroke-miterlimit:10;" d="M 99.199219 83.277344 L 77.886719 58.660156 "/>
<path style="fill:none;stroke-width:1.2;stroke-linecap:butt;stroke-linejoin:miter;stroke:rgb(0%,0%,0%);stroke-opacity:1;stroke-miterlimit:10;" d="M 91.273438 85.828125 L 74.226562 66.136719 "/>
<path style="fill:none;stroke-width:1.2;stroke-linecap:butt;stroke-linejoin:miter;stroke:rgb(0%,0%,0%);stroke-opacity:1;stroke-miterlimit:10;" d="M 77.886719 58.660156 L 45.914062 64.808594 "/>
<path style="fill:none;stroke-width:1.2;stroke-linecap:butt;stroke-linejoin:miter;stroke:rgb(0%,0%,0%);stroke-opacity:1;stroke-miterlimit:10;" d="M 45.914062 64.808594 L 35.25 95.574219 "/>
<path style="fill:none;stroke-width:1.2;stroke-linecap:butt;stroke-linejoin:miter;stroke:rgb(0%,0%,0%);stroke-opacity:1;stroke-miterlimit:10;" d="M 52.085938 70.394531 L 43.554688 95.007812 "/>
<path style="fill:none;stroke-width:1.2;stroke-linecap:butt;stroke-linejoin:miter;stroke:rgb(0%,0%,0%);stroke-opacity:1;stroke-miterlimit:10;" d="M 134.566406 179.027344 L 150.421875 182.722656 "/>
<path style="fill:none;stroke-width:1.2;stroke-linecap:butt;stroke-linejoin:miter;stroke:rgb(0%,0%,100%);stroke-opacity:1;stroke-miterlimit:10;" d="M 150.421875 182.722656 L 166.277344 186.414062 "/>
<path style="fill:none;stroke-width:1.2;stroke-linecap:butt;stroke-linejoin:miter;stroke:rgb(0%,0%,100%);stroke-opacity:1;stroke-miterlimit:10;" d="M 166.277344 186.414062 L 171.007812 201.992188 "/>
<path style="fill:none;stroke-width:1.2;stroke-linecap:butt;stroke-linejoin:miter;stroke:rgb(0%,0%,0%);stroke-opacity:1;stroke-miterlimit:10;" d="M 171.007812 201.992188 L 175.734375 217.570312 "/>
<path style="fill:none;stroke-width:1.2;stroke-linecap:butt;stroke-linejoin:miter;stroke:rgb(0%,0%,100%);stroke-opacity:1;stroke-miterlimit:10;" d="M 166.277344 186.414062 L 177.40625 174.53125 "/>
<path style="fill:none;stroke-width:1.2;stroke-linecap:butt;stroke-linejoin:miter;stroke:rgb(80%,80%,0%);stroke-opacity:1;stroke-miterlimit:10;" d="M 177.40625 174.53125 L 188.53125 162.648438 "/>
<path style=" stroke:none;fill-rule:nonzero;fill:rgb(100%,100%,100%);fill-opacity:1;" d="M 161.277344 178.414062 L 171.277344 178.414062 L 171.277344 194.414062 L 161.277344 194.414062 Z M 161.277344 178.414062 "/>
<g style="fill:rgb(0%,0%,100%);fill-opacity:1;">
  <use xlink:href="#glyph0-1" x="161.277344" y="190.790039"/>
</g>
<path style="fill:none;stroke-width:1.2;stroke-linecap:butt;stroke-linejoin:miter;stroke:rgb(80%,80%,0%);stroke-opacity:1;stroke-miterlimit:10;" d="M 191.152344 159.851562 L 179.265625 148.722656 "/>
<path style="fill:none;stroke-width:1.2;stroke-linecap:butt;stroke-linejoin:miter;stroke:rgb(100%,0%,0%);stroke-opacity:1;stroke-miterlimit:10;" d="M 179.265625 148.722656 L 167.382812 137.597656 "/>
<path style="fill:none;stroke-width:1.2;stroke-linecap:butt;stroke-linejoin:miter;stroke:rgb(80%,80%,0%);stroke-opacity:1;stroke-miterlimit:10;" d="M 185.914062 165.441406 L 174.03125 154.316406 "/>
<path style="fill:none;stroke-width:1.2;stroke-linecap:butt;stroke-linejoin:miter;stroke:rgb(100%,0%,0%);stroke-opacity:1;stroke-miterlimit:10;" d="M 174.03125 154.316406 L 162.144531 143.191406 "/>
<path style="fill:none;stroke-width:1.2;stroke-linecap:butt;stroke-linejoin:miter;stroke:rgb(80%,80%,0%);stroke-opacity:1;stroke-miterlimit:10;" d="M 185.914062 165.441406 L 197.796875 176.570312 "/>
<path style="fill:none;stroke-width:1.2;stroke-linecap:butt;stroke-linejoin:miter;stroke:rgb(100%,0%,0%);stroke-opacity:1;stroke-miterlimit:10;" d="M 197.796875 176.570312 L 209.683594 187.695312 "/>
<path style="fill:none;stroke-width:1.2;stroke-linecap:butt;stroke-linejoin:miter;stroke:rgb(80%,80%,0%);stroke-opacity:1;stroke-miterlimit:10;" d="M 191.152344 159.851562 L 203.035156 170.976562 "/>
<path style="fill:none;stroke-width:1.2;stroke-linecap:butt;stroke-linejoin:miter;stroke:rgb(100%,0%,0%);stroke-opacity:1;stroke-miterlimit:10;" d="M 203.035156 170.976562 L 214.917969 182.105469 "/>
<path style="fill:none;stroke-width:1.2;stroke-linecap:butt;stroke-linejoin:miter;stroke:rgb(80%,80%,0%);stroke-opacity:1;stroke-miterlimit:10;" d="M 188.53125 162.648438 L 199.660156 150.761719 "/>
<path style="fill:none;stroke-width:1.2;stroke-linecap:butt;stroke-linejoin:miter;stroke:rgb(0%,0%,0%);stroke-opacity:1;stroke-miterlimit:10;" d="M 199.660156 150.761719 L 210.785156 138.878906 "/>
<path style=" stroke:none;fill-rule:nonzero;fill:rgb(100%,100%,100%);fill-opacity:1;" d="M 184.53125 154.648438 L 193.53125 154.648438 L 193.53125 170.648438 L 184.53125 170.648438 Z M 184.53125 154.648438 "/>
<g style="fill:rgb(80%,80%,0%);fill-opacity:1;">
  <use xlink:href="#glyph0-2" x="184.53125" y="167.024414"/>
</g>
<path style=" stroke:none;fill-rule:nonzero;fill:rgb(100%,100%,100%);fill-opacity:1;" d="M 153.765625 132.394531 L 164.765625 132.394531 L 164.765625 148.394531 L 153.765625 148.394531 Z M 153.765625 132.394531 "/>
<g style="fill:rgb(100%,0%,0%);fill-opacity:1;">
  <use xlink:href="#glyph0-3" x="153.765625" y="144.770508"/>
</g>
<path style=" stroke:none;fill-rule:nonzero;fill:rgb(100%,100%,100%);fill-opacity:1;" d="M 207.300781 176.898438 L 218.300781 176.898438 L 218.300781 192.898438 L 207.300781 192.898438 Z M 207.300781 176.898438 "/>
<g style="fill:rgb(100%,0%,0%);fill-opacity:1;">
  <use xlink:href="#glyph0-3" x="207.300781" y="189.274414"/>
</g>
<path style="fill:none;stroke-width:1.2;stroke-linecap:butt;stroke-linejoin:miter;stroke:rgb(0%,0%,0%);stroke-opacity:1;stroke-miterlimit:10;" d="M 210.785156 138.878906 L 242.496094 146.265625 "/>
<path style="fill:none;stroke-width:1.2;stroke-linecap:butt;stroke-linejoin:miter;stroke:rgb(0%,0%,0%);stroke-opacity:1;stroke-miterlimit:10;" d="M 215.695312 132.15625 L 241.0625 138.066406 "/>
<path style="fill:none;stroke-width:1.2;stroke-linecap:butt;stroke-linejoin:miter;stroke:rgb(0%,0%,0%);stroke-opacity:1;stroke-miterlimit:10;" d="M 201.328125 107.722656 L 210.785156 138.878906 "/>
<path style="fill:none;stroke-width:1.2;stroke-linecap:butt;stroke-linejoin:miter;stroke:rgb(0%,0%,0%);stroke-opacity:1;stroke-miterlimit:10;" d="M 242.496094 146.265625 L 264.75 122.5 "/>
<path style="fill:none;stroke-width:1.2;stroke-linecap:butt;stroke-linejoin:miter;stroke:rgb(0%,0%,0%);stroke-opacity:1;stroke-miterlimit:10;" d="M 264.75 122.5 L 255.292969 91.34375 "/>
<path style="fill:none;stroke-width:1.2;stroke-linecap:butt;stroke-linejoin:miter;stroke:rgb(0%,0%,0%);stroke-opacity:1;stroke-miterlimit:10;" d="M 256.472656 121.609375 L 248.90625 96.683594 "/>
<path style="fill:none;stroke-width:1.2;stroke-linecap:butt;stroke-linejoin:miter;stroke:rgb(0%,0%,0%);stroke-opacity:1;stroke-miterlimit:10;" d="M 255.292969 91.34375 L 223.582031 83.953125 "/>
<path style="fill:none;stroke-width:1.2;stroke-linecap:butt;stroke-linejoin:miter;stroke:rgb(0%,0%,0%);stroke-opacity:1;stroke-miterlimit:10;" d="M 223.582031 83.953125 L 201.328125 107.722656 "/>
<path style="fill:none;stroke-width:1.2;stroke-linecap:butt;stroke-linejoin:miter;stroke:rgb(0%,0%,0%);stroke-opacity:1;stroke-miterlimit:10;" d="M 226.949219 91.566406 L 209.148438 110.582031 "/>
</g>
</svg>

<svg xmlns="http://www.w3.org/2000/svg" xmlns:xlink="http://www.w3.org/1999/xlink" width="300pt" height="300pt" viewBox="0 0 300 300"><defs><symbol overflow="visible"><path d="M.64 2.297v-11.47h6.5v11.47zm.735-.72h5.047V-8.436H1.375zm0 0"/></symbol><symbol overflow="visible" id="a"><path d="M1.28-9.484H3l4.203 7.937v-7.937h1.25V0H6.72L2.515-7.922V0H1.28zm0 0"/></symbol><symbol overflow="visible" id="b"><path d="M6.953-9.172v1.25c-.48-.226-.937-.398-1.375-.516-.43-.113-.844-.17-1.25-.17-.7 0-1.242.135-1.625.405-.375.273-.562.656-.562 1.156 0 .418.126.734.376.953.257.21.738.383 1.437.516l.78.156c.947.188 1.65.512 2.11.97.458.46.688 1.073.688 1.843 0 .92-.307 1.618-.92 2.094-.618.47-1.524.704-2.72.704-.45 0-.93-.055-1.437-.157C1.953-.07 1.43-.222.89-.42v-1.312c.52.293 1.032.51 1.532.656.5.148.988.22 1.47.22.737 0 1.303-.142 1.702-.423.394-.29.593-.704.593-1.236 0-.468-.148-.832-.437-1.093-.28-.257-.746-.456-1.39-.593l-.782-.156c-.96-.187-1.652-.484-2.078-.89-.43-.406-.64-.97-.64-1.688 0-.843.288-1.503.874-1.984.594-.488 1.41-.734 2.454-.734.437 0 .882.043 1.343.125.47.085.943.202 1.423.358zm0 0"/></symbol><symbol overflow="visible" id="c"><path d="M5.125-8.61c-.938 0-1.684.352-2.234 1.047-.542.688-.812 1.633-.812 2.83 0 1.198.27 2.147.813 2.842.55.687 1.297 1.03 2.235 1.03.926 0 1.66-.343 2.203-1.03.55-.696.828-1.645.828-2.844 0-1.196-.277-2.14-.828-2.829-.543-.695-1.277-1.046-2.203-1.046zm0-1.046c1.32 0 2.38.45 3.172 1.344.8.898 1.203 2.09 1.203 3.578 0 1.5-.402 2.7-1.203 3.593C7.504-.255 6.445.186 5.125.186c-1.336 0-2.402-.44-3.203-1.328C1.13-2.036.734-3.235.734-4.735c0-1.49.395-2.68 1.188-3.579.8-.894 1.867-1.343 3.203-1.343zm0 0"/></symbol></defs><g><path fill="#fff" d="M0 0h300v300H0z"/><path d="M153.48 241.34l-31.707-7.39M175.734 217.57l-22.254 23.77" stroke-width="1.2" stroke="#000" stroke-miterlimit="10" fill="none"/><path d="M112.316 202.797m.36 2.976l.996-.304m-.64 3.28l1.995-.605m-1.636 3.585l2.997-.91m-2.637 3.887l3.992-1.21m-3.633 4.19l4.992-1.515m-4.633 4.492l5.987-1.816m-5.63 4.797l6.986-2.122m-6.626 5.098l7.985-2.42m-7.625 5.402l8.98-2.727m-8.62 5.703l9.976-3.027m-9.617 6.01l10.976-3.333m-10.97 3.394l10.998-3.34" stroke="#000" stroke-miterlimit="10" fill="none"/><path d="M112.316 202.797L87.7 224.105M112.316 202.797l22.25-23.77M99.652 172.797l12.664 30M87.7 224.105L59.823 207.28M59.824 207.28l3.692-15.854" stroke-width="1.2" stroke="#000" stroke-miterlimit="10" fill="none"/><path d="M63.516 191.426l3.695-15.856M67.21 175.57l16.224-1.386" stroke-width="1.2" stroke="#00f" stroke-miterlimit="10" fill="none"/><path d="M83.434 174.184l16.218-1.387" stroke-width="1.2" stroke="#000" stroke-miterlimit="10" fill="none"/><path d="M67.21 175.57l-10.655-12.308" stroke-width="1.2" stroke="#00f" stroke-miterlimit="10" fill="none"/><path d="M56.555 163.262l-10.657-12.31" stroke-width="1.2" stroke="#000" stroke-miterlimit="10" fill="none"/><path d="M62.21 167.57h10v16h-10zm0 0" fill="#fff"/><use xlink:href="#a" x="62.211" y="179.946" fill="#00f"/><path d="M45.898 150.953l10.664-30.762M56.563 120.19l31.972-6.147M58.313 112.05l25.578-4.917M35.25 95.574l21.313 24.617M88.535 114.043L99.2 83.277M99.2 83.277L77.886 58.66M91.273 85.828l-17.046-19.69M77.887 58.66l-31.973 6.15M45.914 64.81L35.25 95.573M52.086 70.395l-8.53 24.613M134.566 179.027l15.856 3.696" stroke-width="1.2" stroke="#000" stroke-miterlimit="10" fill="none"/><path d="M150.422 182.723l15.855 3.69M166.277 186.414l4.73 15.578" stroke-width="1.2" stroke="#00f" stroke-miterlimit="10" fill="none"/><path d="M171.008 201.992l4.726 15.578" stroke-width="1.2" stroke="#000" stroke-miterlimit="10" fill="none"/><path d="M166.277 186.414l11.13-11.883" stroke-width="1.2" stroke="#00f" stroke-miterlimit="10" fill="none"/><path d="M177.406 174.53l11.125-11.882" stroke-width="1.2" stroke="#cc0" stroke-miterlimit="10" fill="none"/><path d="M161.277 178.414h10v16h-10zm0 0" fill="#fff"/><use xlink:href="#a" x="161.277" y="190.79" fill="#00f"/><path d="M191.152 159.852l-11.886-11.13" stroke-width="1.2" stroke="#cc0" stroke-miterlimit="10" fill="none"/><path d="M179.266 148.723l-11.883-11.125" stroke-width="1.2" stroke="#f00" stroke-miterlimit="10" fill="none"/><path d="M185.914 165.44l-11.883-11.124" stroke-width="1.2" stroke="#cc0" stroke-miterlimit="10" fill="none"/><path d="M174.03 154.316l-11.885-11.125" stroke-width="1.2" stroke="#f00" stroke-miterlimit="10" fill="none"/><path d="M185.914 165.44l11.883 11.13" stroke-width="1.2" stroke="#cc0" stroke-miterlimit="10" fill="none"/><path d="M197.797 176.57l11.887 11.125" stroke-width="1.2" stroke="#f00" stroke-miterlimit="10" fill="none"/><path d="M191.152 159.852l11.883 11.125" stroke-width="1.2" stroke="#cc0" stroke-miterlimit="10" fill="none"/><path d="M203.035 170.977l11.883 11.128" stroke-width="1.2" stroke="#f00" stroke-miterlimit="10" fill="none"/><path d="M188.53 162.648l11.13-11.886" stroke-width="1.2" stroke="#cc0" stroke-miterlimit="10" fill="none"/><path d="M199.66 150.762l11.125-11.883" stroke-width="1.2" stroke="#000" stroke-miterlimit="10" fill="none"/><path d="M184.53 154.648h9v16h-9zm0 0" fill="#fff"/><use xlink:href="#b" x="184.531" y="167.024" fill="#cc0"/><path d="M153.766 132.395h11v16h-11zm0 0" fill="#fff"/><use xlink:href="#c" x="153.766" y="144.771" fill="#f00"/><path d="M207.3 176.898h11v16h-11zm0 0" fill="#fff"/><use xlink:href="#c" x="207.301" y="189.274" fill="#f00"/><path d="M210.785 138.88l31.71 7.386M215.695 132.156l25.368 5.91M201.328 107.723l9.457 31.156M242.496 146.266L264.75 122.5M264.75 122.5l-9.457-31.156M256.473 121.61l-7.567-24.926M255.293 91.344l-31.71-7.39M223.582 83.953l-22.254 23.77M226.95 91.566l-17.802 19.016" stroke-width="1.2" stroke="#000" stroke-miterlimit="10" fill="none"/></g></svg>
